dist/img/logo.svg

<svg width="254" height="29" viewBox="0 0 254 29" fill="none" xmlns="http://www.w3.org/2000/svg">
<path d="M15.8501 10.6414L17.8143 12.6475C18.4239 13.27 18.6949 14.0309 18.6949 14.7918C18.6949 15.6219 18.3562 16.3136 17.7466 16.9362L15.8501 18.873C15.3082 19.4264 14.6309 19.7031 13.8181 19.7031C13.0053 19.7031 12.3279 19.4264 11.7183 18.8038L9.75406 16.7978C9.21219 16.2445 8.94127 15.5527 8.87354 14.6535C8.87354 13.8234 9.14447 13.1317 9.68633 12.5783L11.5829 10.6414C12.1247 10.0881 12.8698 9.74219 13.6826 9.74219C14.5631 9.81136 15.2405 10.0881 15.8501 10.6414Z" fill="white"/>
<path d="M17.2038 24.6836C16.5942 24.061 16.3232 23.3693 16.3232 22.47C16.3232 21.5708 16.5942 20.8099 17.2038 20.2565L19.1003 18.3197C19.7099 17.6971 20.3872 17.4204 21.2678 17.4204C22.1483 17.4204 22.8934 17.6971 23.4352 18.3197L27.4992 22.47L26.2123 23.7843L22.1483 19.634C21.9451 19.4264 21.6742 19.2881 21.3355 19.2881C20.9291 19.2881 20.6582 19.4264 20.455 19.634L18.5584 21.5708C18.3552 21.7783 18.2198 22.055 18.2198 22.4009C18.2198 22.7467 18.3552 23.0234 18.5584 23.2309L22.6224 27.3813L21.2678 28.7648L17.2038 24.6836Z" fill="white"/>
<path d="M6.23146 12.0924C5.35093 12.0924 4.60586 11.8157 4.064 11.1932L0 7.04279L1.28693 5.72851L5.35092 9.87889C5.55412 10.0864 5.82507 10.2248 6.16373 10.2248C6.57013 10.2248 6.84106 10.0864 7.04426 9.87889L8.94079 7.94203C9.14399 7.73451 9.27946 7.45783 9.27946 7.11197C9.27946 6.7661 9.14399 6.4894 8.94079 6.28188L4.87679 2.13151L6.23146 0.748047L10.2955 4.89842C10.9051 5.52098 11.176 6.21272 11.176 7.11197C11.176 8.01122 10.9051 8.77211 10.2955 9.32549L8.39892 11.2623C7.78932 11.8157 7.04426 12.0924 6.23146 12.0924Z" fill="white"/>
<path d="M21.2678 12.0932C20.3872 12.0932 19.6422 11.8165 19.1003 11.194L17.2038 9.25715C16.5942 8.6346 16.3232 7.94286 16.3232 7.04361C16.3232 6.14436 16.5942 5.38345 17.2038 4.83007L21.2678 0.679688L22.5547 1.99399L18.4907 6.14437C18.2875 6.35189 18.152 6.62857 18.152 6.97443C18.152 7.3203 18.2875 7.597 18.4907 7.87369L20.3872 9.74135C20.5904 9.94887 20.8614 10.0872 21.2 10.0872C21.5387 10.0872 21.8096 9.94887 22.0128 9.74135L26.0768 5.59097L27.4315 6.97443L23.3675 11.1248C22.8256 11.8165 22.0806 12.0932 21.2678 12.0932Z" fill="white"/>
<path d="M4.87679 27.4498L8.94079 23.2995C9.14399 23.0919 9.27946 22.8152 9.27946 22.4694C9.27946 22.1235 9.14399 21.8468 8.94079 21.5701L7.04426 19.6333C6.84106 19.4258 6.57013 19.2874 6.23146 19.2874C5.89279 19.2874 5.62186 19.4258 5.41866 19.6333L1.35467 23.7837L0 22.4002L4.064 18.2498C4.6736 17.6273 5.35093 17.3506 6.23146 17.3506C7.11199 17.3506 7.85706 17.6273 8.39892 18.2498L10.2955 20.1867C10.9051 20.8092 11.176 21.501 11.176 22.4002C11.176 23.2995 10.9051 24.0604 10.2955 24.6137L6.23146 28.7641L4.87679 27.4498Z" fill="white"/>
<path d="M128.151 24.1305H112.505H112.098C110.676 24.1305 109.524 23.6462 108.644 22.6778C107.763 21.7094 107.357 20.4643 107.357 18.9425V10.2267C107.357 8.91241 107.831 7.80564 108.779 6.83722C109.728 5.8688 110.879 5.38459 112.166 5.38459H128.151V0.95752H112.166C109.66 0.95752 107.492 1.85676 105.731 3.65526C103.903 5.45376 103.022 7.66729 103.022 10.2267V18.9425C103.022 21.7094 103.835 23.9921 105.528 25.8598C107.221 27.7275 109.389 28.6267 112.166 28.6267H128.151V24.1305Z" fill="white"/>
<path d="M76.9443 6.83722C77.8926 5.8688 79.0441 5.38459 80.331 5.38459H96.3161V0.95752H80.331C77.8249 0.95752 75.6574 1.85676 73.8963 3.65526C72.0675 5.45376 71.187 7.66729 71.187 10.2267V18.9425C71.187 21.7094 71.9998 23.9921 73.6931 25.8598C75.3865 27.7275 77.5539 28.6267 80.331 28.6267H96.3161V24.1305H80.6697H80.2633C78.8409 24.1305 77.6894 23.6462 76.8089 22.6778C75.9283 21.7094 75.5219 20.4643 75.5219 18.9425V16.6598H87.9171V12.2327H75.5219V10.2267C75.5219 8.91241 75.9961 7.80564 76.9443 6.83722Z" fill="white"/>
<path d="M158.023 24.1305H142.376H141.97C140.547 24.1305 139.396 23.6462 138.515 22.6778C137.635 21.7094 137.228 20.4643 137.228 18.9425V10.2267C137.228 8.91241 137.703 7.80564 138.651 6.83722C139.599 5.8688 140.751 5.38459 142.038 5.38459H158.023V0.95752H142.038C139.531 0.95752 137.364 1.85676 135.603 3.65526C133.774 5.45376 132.894 7.66729 132.894 10.2267V18.9425C132.894 21.7094 133.706 23.9921 135.4 25.8598C137.093 27.7275 139.26 28.6267 142.038 28.6267H158.023V24.1305Z" fill="white"/>
<path d="M58.9952 28.6267V10.365C58.9952 9.11991 58.5211 7.94398 57.5051 6.97556C56.4891 6.00713 55.4053 5.52292 54.1184 5.52292H45.4485C44.1616 5.52292 43.0101 6.00713 42.0619 6.97556C41.1136 7.94398 40.6395 9.05074 40.6395 10.365V28.6267H36.2368V10.365C36.2368 7.8748 37.1851 5.66126 39.0139 3.79359C40.8427 1.92592 43.0101 0.95752 45.4485 0.95752H54.1184C56.5568 0.95752 58.7243 1.92592 60.5531 3.79359C62.3819 5.66126 63.3301 7.8748 63.3301 10.365V28.6267H58.9952Z" fill="white"/>
<path d="M210.786 28.6267H202.184C199.475 28.6267 197.24 27.6583 195.546 25.7906C193.853 23.9229 193.04 21.6402 193.04 18.8733V10.2959C193.04 7.80564 193.921 5.59211 195.749 3.72444C197.578 1.85677 199.678 0.95752 202.184 0.95752H210.786C213.225 0.95752 215.392 1.85677 217.221 3.72444C219.05 5.59211 219.93 7.73647 219.93 10.2959V18.8733C219.93 21.4327 219.05 23.7154 217.289 25.6523C215.527 27.6583 213.36 28.6267 210.786 28.6267ZM215.595 10.2959C215.595 8.98158 215.121 7.80564 214.173 6.83722C213.225 5.8688 212.073 5.38459 210.786 5.38459H202.184C200.897 5.38459 199.746 5.8688 198.797 6.83722C197.849 7.80564 197.375 8.98158 197.375 10.2959V18.8733C197.375 20.4643 197.781 21.7094 198.662 22.6778C199.542 23.6462 200.694 24.1305 202.184 24.1305H210.651C212.005 24.1305 213.157 23.6462 214.105 22.6087C215.053 21.5711 215.527 20.326 215.527 18.9425V10.2959H215.595Z" fill="white"/>
<path d="M249.665 28.6267V10.365C249.665 9.11991 249.191 7.94398 248.175 6.97556C247.159 6.00713 246.075 5.52292 244.788 5.52292H236.118C234.831 5.52292 233.747 6.00713 232.731 6.97556C231.783 7.94398 231.309 9.05074 231.309 10.365V28.6267H226.906V10.365C226.906 7.8748 227.854 5.66126 229.683 3.79359C231.512 1.92592 233.68 0.95752 236.118 0.95752H244.788C247.226 0.95752 249.394 1.92592 251.223 3.79359C253.051 5.66126 254 7.8748 254 10.365V28.6267H249.665Z" fill="white"/>
<path d="M189.043 0.95752H163.914V5.38459H174.344V28.6267H178.679V5.38459H189.043V0.95752Z" fill="white"/>
</svg>

<svg width="254" height="29" viewBox="0 0 254 29" fill="none" xmlns="http://www.w3.org/2000/svg"><path d="M15.85 10.641l1.964 2.007c.61.622.88 1.383.88 2.144 0 .83-.338 1.522-.947 2.144l-1.897 1.937c-.542.553-1.22.83-2.032.83-.813 0-1.49-.277-2.1-.9l-1.964-2.005c-.542-.553-.813-1.245-.88-2.144 0-.83.27-1.522.812-2.076l1.897-1.937a2.942 2.942 0 012.1-.899c.88.07 1.558.346 2.167.9zm1.354 14.043c-.61-.623-.88-1.315-.88-2.214 0-.9.27-1.66.88-2.213L19.1 18.32c.61-.623 1.287-.9 2.168-.9.88 0 1.625.277 2.167.9l4.064 4.15-1.287 1.314-4.064-4.15a1.11 1.11 0 00-.813-.346c-.406 0-.677.138-.88.346l-1.897 1.937a1.157 1.157 0 00-.338.83c0 .346.135.622.338.83l4.064 4.15-1.354 1.384-4.064-4.081zM6.231 12.092c-.88 0-1.625-.276-2.167-.899L0 7.043l1.287-1.314 4.064 4.15c.203.207.474.346.813.346.406 0 .677-.139.88-.346l1.897-1.937c.203-.207.338-.484.338-.83s-.135-.623-.338-.83l-4.064-4.15L6.23.748l4.065 4.15c.61.623.88 1.315.88 2.214 0 .9-.27 1.66-.88 2.213l-1.897 1.937c-.61.554-1.355.83-2.168.83zm15.037.001c-.88 0-1.626-.277-2.168-.899l-1.896-1.937c-.61-.622-.88-1.314-.88-2.213 0-.9.27-1.66.88-2.214L21.268.68l1.287 1.314-4.064 4.15a1.158 1.158 0 00-.339.83c0 .346.136.623.339.9l1.896 1.867c.203.208.474.346.813.346.339 0 .61-.138.813-.346l4.064-4.15 1.354 1.383-4.064 4.15c-.541.692-1.286.97-2.1.97zM4.877 27.45L8.94 23.3a1.16 1.16 0 00.338-.83c0-.346-.135-.623-.338-.9l-1.897-1.937a1.11 1.11 0 00-.813-.346c-.338 0-.61.139-.812.346l-4.064 4.15L0 22.4l4.064-4.15c.61-.623 1.287-.9 2.167-.9.881 0 1.626.277 2.168.9l1.897 1.937c.61.622.88 1.314.88 2.213 0 .9-.27 1.66-.88 2.214l-4.065 4.15-1.354-1.314zm123.274-3.32h-16.053c-1.422 0-2.574-.484-3.454-1.452-.881-.969-1.287-2.214-1.287-3.736v-8.715c0-1.315.474-2.421 1.422-3.39.949-.968 2.1-1.452 3.387-1.452h15.985V.958h-15.985c-2.506 0-4.674.899-6.435 2.697-1.828 1.799-2.709 4.012-2.709 6.572v8.715c0 2.767.813 5.05 2.506 6.918 1.693 1.867 3.861 2.767 6.638 2.767h15.985V24.13zM76.944 6.837c.949-.968 2.1-1.452 3.387-1.452h15.985V.958H80.331c-2.506 0-4.674.899-6.435 2.697-1.829 1.799-2.709 4.012-2.709 6.572v8.715c0 2.767.813 5.05 2.506 6.918 1.694 1.867 3.86 2.767 6.638 2.767h15.985V24.13H80.263c-1.422 0-2.574-.485-3.454-1.453-.88-.969-1.287-2.214-1.287-3.736V16.66h12.395v-4.427H75.522v-2.006c0-1.315.474-2.421 1.422-3.39zm81.079 17.293H141.97c-1.423 0-2.574-.484-3.455-1.452-.88-.969-1.287-2.214-1.287-3.736v-8.715c0-1.315.475-2.421 1.423-3.39.948-.968 2.1-1.452 3.387-1.452h15.985V.958h-15.985c-2.507 0-4.674.899-6.435 2.697-1.829 1.799-2.709 4.012-2.709 6.572v8.715c0 2.767.812 5.05 2.506 6.918 1.693 1.867 3.86 2.767 6.638 2.767h15.985V24.13zm-99.028 4.497V10.365c0-1.245-.474-2.421-1.49-3.39-1.016-.968-2.1-1.452-3.387-1.452h-8.67c-1.286 0-2.438.484-3.386 1.453-.948.968-1.422 2.075-1.422 3.389v18.262h-4.403V10.365c0-2.49.948-4.704 2.777-6.571C40.843 1.926 43.01.958 45.448.958h8.67c2.439 0 4.606.968 6.435 2.836 1.829 1.867 2.777 4.08 2.777 6.571v18.262h-4.335zm151.791 0h-8.602c-2.709 0-4.944-.969-6.638-2.836-1.693-1.868-2.506-4.15-2.506-6.918v-8.577c0-2.49.881-4.704 2.709-6.572 1.829-1.867 3.929-2.766 6.435-2.766h8.602c2.439 0 4.606.899 6.435 2.766 1.829 1.868 2.709 4.012 2.709 6.572v8.577c0 2.56-.88 4.842-2.641 6.78-1.762 2.005-3.929 2.974-6.503 2.974zm4.809-18.331c0-1.314-.474-2.49-1.422-3.459-.948-.968-2.1-1.452-3.387-1.452h-8.602c-1.287 0-2.438.484-3.387 1.452-.948.969-1.422 2.145-1.422 3.459v8.577c0 1.591.406 2.836 1.287 3.805.88.968 2.032 1.453 3.522 1.453h8.467c1.354 0 2.506-.485 3.454-1.522a5.298 5.298 0 001.422-3.667v-8.646h.068zm34.07 18.331V10.365c0-1.245-.474-2.421-1.49-3.39-1.016-.968-2.1-1.452-3.387-1.452h-8.67c-1.287 0-2.371.484-3.387 1.453-.948.968-1.422 2.075-1.422 3.389v18.262h-4.403V10.365c0-2.49.948-4.704 2.777-6.571 1.829-1.868 3.997-2.836 6.435-2.836h8.67c2.438 0 4.606.968 6.435 2.836C253.051 5.66 254 7.874 254 10.365v18.262h-4.335zM189.043.958h-25.129v4.427h10.43v23.242h4.335V5.385h10.364V.958z" fill="#fff"/></svg>
